packages/ffe-icons/icons/filled/sm/info.svg

<svg xmlns="http://www.w3.org/2000/svg" height="20" viewBox="0 -960 960 960" width="20"><path d="M479.803-298.001q10.966 0 18.581-7.475 7.615-7.474 7.615-18.524v-178.001q0-11.049-7.418-18.524Q491.163-528 480.197-528q-10.966 0-18.581 7.475t-7.615 18.524V-324q0 11.05 7.418 18.524 7.418 7.475 18.384 7.475Zm-.014-290.46q11.942 0 20.23-8.077 8.288-8.078 8.288-20.019 0-11.941-8.078-20.23-8.077-8.288-20.018-8.288-11.942 0-20.23 8.078t-8.288 20.019q0 11.941 8.078 20.229 8.077 8.288 20.018 8.288Zm.554 472.46q-75.112 0-141.48-28.42-66.369-28.42-116.182-78.21-49.814-49.791-78.247-116.087t-28.433-141.673q0-75.378 28.42-141.246 28.42-65.869 78.21-115.682 49.791-49.814 116.087-78.247t141.673-28.433q75.378 0 141.246 28.42 65.869 28.42 115.682 78.21 49.814 49.791 78.247 115.853t28.433 141.173q0 75.112-28.42 141.48-28.42 66.369-78.21 116.182-49.791 49.814-115.853 78.247t-141.173 28.433Z"/></svg>

<svg xmlns="http://www.w3.org/2000/svg" height="20" viewBox="0 -960 960 960" width="20"><path d="M479.8-298q10.97 0 18.58-7.48Q506-312.95 506-324v-178q0-11.05-7.42-18.53-7.42-7.47-18.38-7.47-10.97 0-18.58 7.47Q454-513.05 454-502v178q0 11.05 7.42 18.52 7.42 7.48 18.38 7.48Zm-.01-290.46q11.94 0 20.23-8.08 8.29-8.08 8.29-20.02t-8.08-20.23q-8.08-8.28-20.02-8.28T459.98-637q-8.29 8.08-8.29 20.02t8.08 20.23q8.08 8.29 20.02 8.29Zm.55 472.46q-75.11 0-141.48-28.42-66.37-28.42-116.18-78.21-49.81-49.79-78.25-116.09Q116-405.01 116-480.39q0-75.38 28.42-141.25t78.21-115.68q49.79-49.81 116.09-78.25Q405.01-844 480.39-844q75.38 0 141.25 28.42t115.68 78.21q49.81 49.79 78.25 115.85Q844-555.45 844-480.34q0 75.11-28.42 141.48-28.42 66.37-78.21 116.18-49.79 49.81-115.85 78.25Q555.45-116 480.34-116Z"/></svg>
